T: La Ciapa Rusa
M: 3/4
L: 1/8
K: Emin
|:EF GA Bc | B4 B2 | cB AB ce | B4 B2 | AG FG AB | GF EF GE |[1 F2 A2 G2 | F4. |2 F2 G2 F2 | E4 G A |||: BG EB GE | BG EB GE | cG Ec GE | cG Ec GE |BA GB AG | BA GB AG |[1 F2 A2 G2 | F4 G A |2 F2 G2 F2 | E6 |||:EF GA Bc | B4 B2 | cB AB ce | B4 B2 | AG FG AB | GF EF GE |[1 F2 A2 G2 | F4. |2 F2 G2 F2 | E4 G A |||: BGE BGE | BGE BGE | cGE cGE | cGE cGE |F2 G2 F2 | E6 ||
